Origami/32x32/apps/yaourtgui.svg

<svg width="32" height="32" version="1" xmlns="http://www.w3.org/2000/svg">
 <path d="m16 2c-7.756 0-14 6.244-14 14s6.244 14 14 14 14-6.244 14-14-6.244-14-14-14z" fill="#33aadd"/>
 <path d="m16 2c-7.756 0-14 6.244-14 14 0 0.169 0.0195 0.333 0.0254 0.5 0.2641-7.5206 6.3878-13.5 13.975-13.5s13.711 5.9794 13.975 13.5c6e-3 -0.16736 0.0254-0.33116 0.0254-0.5 0-7.756-6.244-14-14-14z" fill="#fff" opacity=".2"/>
 <path d="m9.5292969 8.6855469-2.8300781 2.8300781 7.3007812 7.298828v9.185547h4v-9.171875l7.314453-7.3125-2.830078-2.8300781-6.476563 6.4785151-6.4785151-6.4785151z" style="opacity:.2"/>
 <path d="m9.5292969 7.6855469l-2.8300781 2.8300781 7.3007812 7.298828v9.185547h4v-9.171875l7.314453-7.3125-2.830078-2.8300781-6.476563 6.4785151-6.4785151-6.4785151z" style="fill:#80fe9b"/>
 <path d="m2.0254 16.5c-0.0059 0.167-0.0254 0.331-0.0254 0.5 0 7.756 6.244 14 14 14s14-6.244 14-14c0-0.16884-0.01952-0.33264-0.02539-0.5-0.264 7.521-6.388 13.5-13.975 13.5-7.5872 0-13.711-5.979-13.975-13.5z" opacity=".2"/>
</svg>

<svg xmlns="http://www.w3.org/2000/svg" width="32" height="32" version="1">
 <path fill="#33aadd" d="m16 2c-7.756 0-14 6.244-14 14s6.244 14 14 14 14-6.244 14-14-6.244-14-14-14z"/>
 <path fill="#fff" opacity=".2" d="m16 2c-7.756 0-14 6.244-14 14 0 0.169 0.0195 0.333 0.0254 0.5 0.2641-7.5206 6.3878-13.5 13.975-13.5s13.711 5.9794 13.975 13.5c0.006-0.16736 0.0254-0.33116 0.0254-0.5 0-7.756-6.244-14-14-14z"/>
 <path style="opacity:0.2" d="M 9.5292969,8.6855469 6.6992188,11.515625 14,18.814453 14,28 l 4,0 0,-9.171875 7.314453,-7.3125 L 22.484375,8.6855469 16.007812,15.164062 9.5292969,8.6855469 Z"/>
 <path style="fill:#80fe9b" d="M 9.5292969 7.6855469 L 6.6992188 10.515625 L 14 17.814453 L 14 27 L 18 27 L 18 17.828125 L 25.314453 10.515625 L 22.484375 7.6855469 L 16.007812 14.164062 L 9.5292969 7.6855469 z"/>
 <path opacity=".2" d="m2.0254 16.5c-0.0059 0.167-0.0254 0.331-0.0254 0.5 0 7.756 6.244 14 14 14s14-6.244 14-14c0-0.16884-0.01952-0.33264-0.02539-0.5-0.264 7.521-6.388 13.5-13.975 13.5-7.5872 0-13.711-5.979-13.975-13.5z"/>
</svg>
